!!!OTL: Wiedersehen an der Bahre Der Juengling, der in Kampfe zog,
!!!ARE: Europa, Osteuropa, Ungarn, Suedungarn, Komitat Tolnau
!!!YOR: 3, S. 86
!!    1936 aufgezeichnet
!!!SCT: Q0056N
!!!YEM: Copyright 1995, estate of Helmut Schaffrath.
**kern
*ICvox
*Ivox
!! 2+3 metric grouping
*M5/8
*k[b-]
*F:
{8a
=1
8cc
8a
4a
8a
=2
8a
8g
4g}
{8g
=3
8g
8dd
4dd
8g
=4
8b-
4a
8r}
{8cc
=5
8a
8cc
4ff
8a
=6
8g
8b-
4dd}
{8ff
=7
8ee
8dd
4cc
8g
=8
8b-
4a
8r}
{8cc
=9
8a
8cc
4ff
8a
=10
8g
8b-
4dd}
{8ff
=11
8ee
8dd
4cc
8g
=12
8b-
4a
8r}
==
!!!AGN: Ballade, Abschied, Enttaeuschung, Tod, Selbstmord
!!!ONB: ESAC (Essen Associative Code) Database: BALLADE
!!!AMT: simple quintuple
!!!AIN: vox
!!!EED: Helmut Schaffrath
!!!EEV: 1.0
*-
